X:672
%%etbk:tnset id:413,pos:1,rep:3x,ant:
%%etbk:wsite https://thesession.org/tunes/1409
%%etbk:color #ffffcc
%%etbk:pldat 2016-04-11T18:37,2016-03-20T10:56,2016-01-19T17:28,2015-08-14T16:54,2015-07-08T15:53,2015-06-10T19:01,2015-05-19T15:45,2015-04-27T18:58,2015-04-26T13:48,2015-04-08T15:41,2015-04-06T15:08,2015-04-04T14:56
T: The Milliner's Daughter
Z: Piano Box Version by Martin Fleischmann
H: Created 2015-03-30 /  Last Modified 2015-08-14
R: reel
M: 4/4
L: 1/8
K: Gmaj
!2!G2!4!BG DGB!2!G|!1!A2 !3!e!5!g !4!f!2!d!1!c!2!A|!1!G2!4!BG !1!D!2!G!4!B!5!d|1 !4!cA!1!FG !3!AGG!1!F:|2 cAFG AGG2||
!2!d!4!g!3!~g2 d!3!g~g2|df!2!~f2 df!2!~f2|dg!3!~g2 dg!3!~g2|d^cde fd=cA|
d!4!g!3!~g2 !5!bga!3!g|!2!fdde ~f3g|!5!afge fd!4!e!2!^c|d2 (3efg fd=cA||


